X: 31186
T: Paddy Fahey's
R: reel
M: 4/4
K: Cmajor
ECEG cd/4c/4B/ ce|g^fdc BG G2|A2 FA G2 EG|F2 dc BGFD|
ECEG c3 e|g^fdc BG G2|A2 FA G2 EG|F2 DF ECGF|
ECEG cd/4c/4B/ ce|g^fdc BG G2|A2 FA G2 EG|F2 dc BGFD|
ECEG c3 e|g^fdc BG G2|A2 FA G2 EG|F2 DF EC C2|
c2 GF EGcd|ecgc acgc|A_BFB ABdB|f_B B2 fBcB|
Gcd/<c/B cdcB|GccB cdef|g2 ^f/g/a gbfa|g2 ec BGAB|
c2 GF EGcd|ecgc acgc|A_BFB ABdB|f_B B2 fBcB|
GccB cdcB|GccB cdef|g2 ^f/g/a gbfa|g2 ec BGFD|C8||

